assets/img/logos/logo-light.svg

<svg viewBox="0 0 408 408" xmlns="http://www.w3.org/2000/svg"><path d="m1.42 1.44 114.58 379.15s127.9 58.16 290.43 0c-.01 2.15-405.01-379.15-405.01-379.15z" fill="#009edb" opacity=".4"/><g fill="#fff"><path d="m125.11 378.43v-116.2h49.26a33 33 0 0 1 14.81 3.36 38.2 38.2 0 0 1 11.7 8.83 41.82 41.82 0 0 1 7.69 12.44 37.36 37.36 0 0 1 2.79 14 40.42 40.42 0 0 1 -2.62 14.32 39.72 39.72 0 0 1 -7.37 12.36 36.11 36.11 0 0 1 -11.45 8.67 33.08 33.08 0 0 1 -14.73 3.28h-27.5v38.95zm22.58-58.76h26.19a12.94 12.94 0 0 0 10.39-5.07q4.17-5.07 4.17-13.75a22.47 22.47 0 0 0 -1.31-7.93 19.41 19.41 0 0 0 -3.43-6 13.85 13.85 0 0 0 -5-3.68 14.62 14.62 0 0 0 -5.8-1.24h-25.21z"/><path d="m247.85 262.23h20l44.15 116.2h-23.24l-10.8-29h-40.59l-10.63 29h-23.24zm26 71.36-16-45.66-16.69 45.66z"/></g></svg>

<svg id="Layer_1" data-name="Layer 1" xmlns="http://www.w3.org/2000/svg" viewBox="0 0 408 408"><defs><style>.cls-1{fill:#009edb;opacity:0.4;}.cls-2{fill:#fff;}</style></defs><title>PA light</title><path class="cls-1" d="M1.42,1.44,116,380.59s127.9,58.16,290.43,0C406.42,382.74,1.42,1.44,1.42,1.44Z"/><path class="cls-2" d="M125.11,378.43V262.23h49.26a33,33,0,0,1,14.81,3.36,38.2,38.2,0,0,1,11.7,8.83,41.82,41.82,0,0,1,7.69,12.44,37.36,37.36,0,0,1,2.79,14,40.42,40.42,0,0,1-2.62,14.32,39.72,39.72,0,0,1-7.37,12.36,36.11,36.11,0,0,1-11.45,8.67,33.08,33.08,0,0,1-14.73,3.28h-27.5v38.95Zm22.58-58.76h26.19a12.94,12.94,0,0,0,10.39-5.07q4.17-5.07,4.17-13.75a22.47,22.47,0,0,0-1.31-7.93,19.41,19.41,0,0,0-3.43-6,13.85,13.85,0,0,0-5-3.68A14.62,14.62,0,0,0,172.9,282H147.69Z"/><path class="cls-2" d="M247.85,262.23h20L312,378.43H288.76l-10.8-29H237.37l-10.63,29H203.5Zm26,71.36-16-45.66-16.69,45.66Z"/></svg>
